X:190
T: Strap the Razor
S: "Roche Collection of Traditional Irish Music" [I/44/103]
L: 1/8
M: 6/8
R: jig
K: G
D | DGG BAG | AFD FDC | DGG BAG | Add cAG |
DGG BAG | AFD D2E | =FDE F2G | Add cAG :|
K: F
Ade f2g | aba f2d | cAG FGA | Add cAG |
Ade f2g | aba f2d | cAG FGA | Add cAG :|
